X: 23385
T: Lemonville, The
R: jig
M: 6/8
K: Dmajor
f2g|a3 afd|f3 fdA|ded dAF|G3 e2f|
g3 gec|e3 ecA|cBA gfe|f3 f2g|
a3 afd|f3 fdA|ded def|B3 e2f|
g3 gec|efe ecA|cBA gfe|d3 d2A||
FGA ABc|dec def|g3 gfe|B2e e2d|
cea aed|cea aed|cea gfe|fdB A2G|
FGA ABc|dec def|g3 gfe|B2e e2d|
cea aed|cea aed|cea gfe|d3 d3||

